static/rideshare-car.svg

<?xml version="1.0" encoding="UTF-8"?>
<svg width="86px" height="32px" viewBox="0 0 86 32" version="1.1" xmlns="http://www.w3.org/2000/svg" xmlns:xlink="http://www.w3.org/1999/xlink">
    <!-- Generator: Sketch 49.3 (51167) - http://www.bohemiancoding.com/sketch -->
    <title>rideshare-car</title>
    <desc>Created with Sketch.</desc>
    <defs></defs>
    <g id="Page-1" stroke="none" stroke-width="1" fill="none" fill-rule="evenodd">
        <g id="9-Lyft-Copy" transform="translate(-451.000000, -515.000000)" fill="#0012B9">
            <g id="stats---Blue" transform="translate(428.000000, 485.000000)">
                <g id="rideshare-car" transform="translate(23.000000, 30.000000)">
                    <circle id="Oval-3-Copy" cx="50.5" cy="8.5" r="2.5"></circle>
                    <path d="M85.4523714,19.080284 C85.1519584,18.0226226 84.5153688,16.6037757 83.2082879,15.7132801 C77.1957157,12.1103451 69.2711213,11.1796644 68.2788568,11.0841412 C67.2839468,10.9866038 65.6916401,10.7524951 65.6916401,10.7524951 C65.6916401,10.7524951 57.371492,3.93830898 49.4792316,1.36531836 C41.5882451,-1.20863134 25.3434046,0.621080722 23.9429467,0.759570303 C20.6242938,1.07117186 11.597107,8.12608428 11.597107,8.12608428 C11.597107,8.12608428 1.74520516,10.0064352 0.986529937,10.7182563 C0.229716374,11.4291183 -0.0236652775,14.9049766 0.0017120805,18.1372314 C0.0269914564,21.3703493 0.57294759,25.8085375 0.57294759,25.8085375 C1.85661078,25.8905379 8.76630686,26.3272021 8.76630686,26.3272021 C8.71574811,25.9394504 8.68047456,25.5467116 8.68047456,25.144478 C8.68047456,20.3672589 12.3494134,16.4929074 16.8765773,16.4929074 C21.4037412,16.4929074 25.0726801,20.4942396 25.0726801,25.2704038 C25.0726801,26.165503 24.9451074,27.0066066 24.7061291,27.9619354 L61.9393184,27.9619354 C61.6994583,27.0065107 61.5715917,26.1628176 61.5715917,25.2704038 C61.5715917,20.4942396 65.2407265,16.5567814 69.7688703,16.5567814 C74.2950543,16.5567814 77.965071,20.3987163 77.965071,25.1758396 C77.965071,25.9315861 77.8654232,26.6422563 77.691603,27.3418972 C79.3256501,27.4155537 85.3148046,27.6485116 85.777182,27.3160023 C86.3123601,26.9301688 85.7537643,20.1389045 85.4523714,19.080284 Z M23.744729,10.2605885 C23.744729,10.2605885 23.6506662,4.98839376 24.996646,3.68808785 C26.3445854,2.3886451 35.11016,2.72211344 35.5320709,2.68864192 C35.9547655,2.65622539 36.351299,3.14544655 36.383927,3.60877284 C36.4155752,4.0731541 36.8754051,11.0564241 36.8754051,11.0564241 L23.744729,10.2605885 Z M55.518161,11.6985208 L40.2376601,11.2972463 C40.2376601,11.2972463 38.7684189,3.54192572 38.7067881,3.22850193 C38.6452554,2.91411907 38.9204871,2.69056006 39.3875676,2.68960099 C39.8547462,2.68864192 46.0866022,3.28393613 49.2785643,4.48680061 C53.6208361,6.1225889 57.4174456,9.17137371 57.4174456,9.17137371 L55.518161,11.6985208 Z M69.825112,18.0020026 C66.0369289,18.0020026 62.9549027,21.1425703 62.9549027,25.0010013 C62.9549027,28.8594323 66.0369289,32 69.825112,32 C73.613491,32 76.6954193,28.8594323 76.6954193,25.0010013 C76.6954193,21.1425703 73.613491,18.0020026 69.825112,18.0020026 Z M69.825112,28.4034908 C67.9815792,28.4034908 66.4827474,26.8771323 66.4827474,24.9994668 C66.4827474,23.1215136 67.9815792,21.5933328 69.825112,21.5933328 C71.6687427,21.5933328 73.1675746,23.1215136 73.1675746,24.9994668 C73.1675746,26.8771323 71.667175,28.4034908 69.825112,28.4034908 Z M16.8818684,18.0020026 C13.0935873,18.0020026 10.0115611,21.1425703 10.0115611,25.0010013 C10.0115611,28.8594323 13.0935873,32 16.8818684,32 C20.6702474,32 23.7537434,28.8594323 23.7537434,25.0010013 C23.7537434,21.1425703 20.6702474,18.0020026 16.8818684,18.0020026 Z M16.8818684,28.4034908 C15.0381396,28.4034908 13.5395037,26.8771323 13.5395037,24.9994668 C13.5395037,23.1215136 15.0380416,21.5933328 16.8818684,21.5933328 C18.7254991,21.5933328 20.224135,23.1215136 20.224135,24.9994668 C20.224135,26.8771323 18.7255971,28.4034908 16.8818684,28.4034908 Z" id="car" fill-rule="nonzero"></path>
                </g>
            </g>
        </g>
    </g>
</svg>

<svg width="86" height="32" viewBox="0 0 86 32" xmlns="http://www.w3.org/2000/svg"><title>rideshare-car</title><g fill="#00AFB0" fill-rule="evenodd"><circle cx="50.5" cy="8.5" r="2.5"/><path d="M85.452 19.08c-.3-1.057-.937-2.476-2.244-3.367-6.012-3.603-13.937-4.533-14.93-4.629-.994-.097-2.586-.332-2.586-.332s-8.32-6.814-16.213-9.387C41.59-1.209 25.343.621 23.943.76c-3.319.311-12.346 7.366-12.346 7.366s-9.852 1.88-10.61 2.592c-.757.711-1.01 4.187-.985 7.42.025 3.232.57 7.67.57 7.67 1.285.083 8.194.52 8.194.52a9.115 9.115 0 0 1-.086-1.184c0-4.777 3.67-8.651 8.197-8.651 4.527 0 8.196 4.001 8.196 8.777 0 .896-.128 1.737-.367 2.692H61.94c-.24-.955-.367-1.8-.367-2.692 0-4.776 3.669-8.713 8.197-8.713 4.526 0 8.196 3.842 8.196 8.619 0 .756-.1 1.466-.273 2.166 1.634.074 7.623.307 8.085-.026.535-.386-.023-7.177-.325-8.236zm-61.707-8.82s-.094-5.272 1.252-6.572c1.348-1.3 10.113-.966 10.535-1 .423-.032.82.457.852.92.032.465.491 7.448.491 7.448l-13.13-.795zM55.518 11.7l-15.28-.402s-1.47-7.755-1.531-8.068c-.062-.315.213-.538.68-.54.468 0 6.7.595 9.892 1.798 4.342 1.636 8.138 4.684 8.138 4.684L55.518 11.7zm14.307 6.303c-3.788 0-6.87 3.14-6.87 6.999 0 3.858 3.082 6.999 6.87 6.999 3.788 0 6.87-3.14 6.87-6.999 0-3.858-3.082-6.999-6.87-6.999zm0 10.401c-1.843 0-3.342-1.526-3.342-3.404 0-1.877 1.499-3.406 3.342-3.406 1.844 0 3.343 1.529 3.343 3.406 0 1.878-1.5 3.404-3.343 3.404zM16.882 18.002c-3.788 0-6.87 3.14-6.87 6.999 0 3.858 3.082 6.999 6.87 6.999 3.788 0 6.872-3.14 6.872-6.999 0-3.858-3.084-6.999-6.872-6.999zm0 10.401c-1.844 0-3.342-1.526-3.342-3.404 0-1.877 1.498-3.406 3.342-3.406 1.843 0 3.342 1.529 3.342 3.406 0 1.878-1.498 3.404-3.342 3.404z" fill-rule="nonzero"/></g></svg>
